packages/tokens/icons/filterAdd/size32Px.svg

<svg viewBox="0 0 32 32" fill="none" xmlns="http://www.w3.org/2000/svg" width="1em" height="1em"><path d="M26.2039 7.45999L26.2038 7.45993L26.1976 7.46664L17.0736 17.2602C16.7058 17.6427 16.5 18.1522 16.5 18.6827L16.5 28.4444C16.5 29.0253 16.0264 29.5 15.4375 29.5L13.5625 29.5C12.9736 29.5 12.5 29.0253 12.5 28.4444L12.5 18.6827C12.5 18.1522 12.2942 17.6426 11.9264 17.2602L2.8024 7.46659L2.80246 7.46653L2.79609 7.45994C2.60588 7.26313 2.5 7.00108 2.5 6.72886L2.50002 5.55555V5.55555C2.50002 4.97468 2.97362 4.5 3.56252 4.5L25.4375 4.50006C26.0264 4.50006 26.5 4.97475 26.5 5.55562L26.5 6.72892C26.5 7.00114 26.3941 7.26319 26.2039 7.45999Z" stroke="currentColor" stroke-linecap="round"/><path d="M25.5 15.5V23.5M21.5 19.5H29.5" stroke="currentColor" stroke-linecap="round"/></svg>

<svg xmlns="http://www.w3.org/2000/svg" fill="none" viewBox="0 0 32 32" width="1em" height="1em"><path stroke="currentColor" stroke-linecap="round" d="M26.204 7.46h0l-.006.007-9.124 9.793a2.052 2.052 0 0 0-.574 1.423v9.761a1.06 1.06 0 0 1-1.063 1.056h-1.874a1.06 1.06 0 0 1-1.063-1.056v-9.761c0-.53-.206-1.04-.574-1.423L2.802 7.467h0l-.006-.007a1.052 1.052 0 0 1-.296-.731V5.556v0A1.06 1.06 0 0 1 3.563 4.5h21.875A1.06 1.06 0 0 1 26.5 5.556v1.173c0 .272-.106.534-.296.731ZM25.5 15.5v8m-4-4h8"/></svg>
